dist/svg/static/logbook-large.svg

<svg xmlns="http://www.w3.org/2000/svg" width="48" height="48" viewBox="0 0 48 48"><g fill="none" stroke="currentColor" stroke-miterlimit="10"><circle cx="24.5" cy="22" r="3.5"/><path d="M24.5 25.5v5m3.5-9h7.5m-14.5 0h-7.5m4.56 9h12.88A10.338 10.338 0 0 0 35.5 22a10.759 10.759 0 0 0-11-10.5 10.759 10.759 0 0 0-11 10.5 10.338 10.338 0 0 0 4.56 8.5z"/><path d="M6 39.5h4.877M6 8.5h4.877m26.622 37H8.5v-43h28.999a3 3 0 0 1 3.001 3v37a3 3 0 0 1-3.001 3z"/></g></svg>

<?xml version="1.0" encoding="UTF-8" standalone="no"?>
<svg width="48px" height="48px" viewBox="0 0 48 48" version="1.1" xmlns="http://www.w3.org/2000/svg" xmlns:xlink="http://www.w3.org/1999/xlink">
    <!-- Generator: sketchtool 46.2 (44496) - http://www.bohemiancoding.com/sketch -->
    <title>logbook-large</title>
    <desc>Created with sketchtool.</desc>
    <defs></defs>
    <g id="icons-published" stroke="none" stroke-width="1" fill="none" fill-rule="evenodd">
        <g id="briefing" transform="translate(-3168.000000, -922.000000)"></g>
        <g id="logbook-large" stroke="#000000">
            <circle id="Oval" cx="24.5" cy="22" r="3.5"></circle>
            <path d="M24.5,25.5 L24.5,30.5 L24.5,25.5 Z M28,21.5 L35.5,21.5 L28,21.5 Z M21,21.5 L13.5,21.5 L21,21.5 Z M18.1,30.5 L31,30.5 C33.8,28.6 35.5,25.4 35.6,22 C35.5,16.1 30.5,11.4 24.6,11.5 C18.7,11.4 13.7,16.1 13.6,22 C13.5,25.4 15.2,28.6 18.1,30.5 Z" id="Shape"></path>
            <path d="M6,39.5 L10.9,39.5 L6,39.5 Z M6,8.5 L10.9,8.5 L6,8.5 Z M37.5,45.5 L8.5,45.5 L8.5,2.5 L37.5,2.5 C39.2,2.5 40.5,3.8 40.5,5.5 C40.5,5.5 40.5,5.5 40.5,5.5 L40.5,42.5 C40.5,44.2 39.2,45.5 37.5,45.5 C37.5,45.5 37.5,45.5 37.5,45.5 Z" id="Shape"></path>
        </g>
    </g>
</svg>
